X:1
T: Buzzard's Bay
N:
C:Pat Shaw
S:Play 3 times
A:
O:
R:
M:4/4
K:D
I:speed 200
%W: A1
% voice 1 (1 lines, 34 notes)
K:D
M:4/4
L:1/16
A6 B2 A4 f4 |e4 d4 B8 |c6 a2 ^g4 a4 |b4 a4 f2 e2 d2 B2 |A6 B2 A4 f4 |e4 d4 B4 g2 a2 |f4 d4 c2 d2 e2 c2 |d8 d8 |
%W: A2
% voice 1 (1 lines, 34 notes)
A6 B2 A4 f4 |e4 d4 B8 |c6 a2 ^g4 a4 |b4 a4 f2 e2 d2 B2 |A6 B2 A4 f4 |e4 d4 B4 g2 a2 |f4 d4 c2 d2 e2 c2 |d8 d8 |
%W: B1
% voice 1 (1 lines, 34 notes)
f6 e2 d4 B4 |e4 f4 g8 |f6 e2 d4 B4 |c2 d2 c2 B2 ^A4 F4 |f6 e2 d4 B4 |e4 f4 g4 e4 |f4 e2 d2 e4 d2 c2 |F4 ^A4 B8 |
%W: B2
% voice 1 (1 lines, 40 notes)
f6 e2 d4 B4 |e4 f4 g8 |f6 e2 d4 B4 |d2 c2 B2 d2 c2 ^A2 F4 |f6 e2 ^d4 B4 |e4 f4 g4 b4 |a4 g2 f2 g4 f2 e2 |f2 e2 d2 f2 e2 d2 c2 B2 |
%W: C
% voice 1 (1 lines, 34 notes)
A6 B2 A4 f4 |e4 d4 B8 |c6 a2 ^g4 a4 |b4 a4 f2 e2 d2 B2 |A6 B2 A4 f4 |e4 d4 B4 g2 a2 |f4 d4 c2 d2 e2 c2 |d8 d8 ||
